!!!!SEGMENT: pl-kk--kk-i-6--006_pacelli-asprilio--rorate-caeli.krn
!!!cenid: 16xx:961
!!!COM: Pacelli, Asprilio
!!!COM-rismID: pe30009570
!!!CDT: 1570-1623/05/04
!!!CNT: Italian
!!!OTL: Rorate caeli
!!!PDT:
!!!AGN: Sacred
!!!SMS-siglum: PL-Kk
!!!SMS-shelfmark: Kk.I.6
!!!SMS-shelfwork: 006 W
!!!SMS-variant:
!!!SMS-altvar:
!!!NIFC-rismSourceID: 1001135578
!!!NIFC-islandoraID: pl-kk:1634
!!!URL-pdf-islandora: https://repozytorium.nifc.pl/islandora/object/pl-kk%3A1634/datastream/PDF/view
!!!URL-scan: https://polish.musicsources.pl/pl/lokalizacje/galeria/rekopisy/6133 @EN{Scan on Polish Music Herritage in Open Access Website} @PL{Skany w portalu Dziedzictwo Muzyki Polskiej w otwartym dostępie}
!!!ONB-nifc: UWAGA: C (skan 0005-0006, s. 7-8), T (skan 0103-0104, s. 11-12), B (skan 0215-0216, s. 10-12) Następny utwór: Gloria patri
!!!AIN: 1 empty 1 tenor 1 vox
!!!key:
**kern	**text	**text	**kern	**text	**text	**kern	**text	**text
*part3	*part3	*part3	*part2	*part2	*part2	*part1	*part1	*part1
*staff3	*staff3	*staff3	*staff2	*staff2	*staff2	*staff1	*staff1	*staff1
*group1	*	*	*group1	*	*	*group1	*	*
*Iempty	*	*	*Itenor	*	*	*Ivox	*	*
*I"Baſsus	*	*	*I"Tenor.	*	*	*I"Cantus.	*	*
*I'B	*	*	*I'T	*	*	*I'S	*	*
*clefF4	*	*	*clefC4	*	*	*clefC4	*	*
*k[]	*	*	*k[]	*	*	*k[]	*	*
*G:	*	*	*G:	*	*	*G:	*	*
*M2/1	*	*	*M2/1	*	*	*M2/1	*	*
*met(C|)	*	*	*met(C|)	*	*	*met(C|)	*	*
=1-	=1-	=1-	=1-	=1-	=1-	=1-	=1-	=1-
*	*	*	*	*	*	*lig	*	*
!LO:TX:a:t=Introitus. \nt(em)p(or)e Ad(ve)nt(us).	!	!	!LO:TX:a:t=Introitus \nt(em)p(or)e Ad(ve)nt(us) \nAsprilli Pacelli.	!	!	!LO:TX:a:t=Introitus \nt(em)p(or)e Ad(ve)nt(us)	!	!
!	!	!	!	!	!	!LO:TX:a:t=Asprilli \nPacelli.	!	!
!LO:TX:t=P:problem=inicjał R	!	!	!LO:TX:t=P:problem=inicjał R	!	!	!LO:TX:t=P:problem=inicjał R	!	!
1rD	.	.	2G/	Ro-	Sal-	1C	Ro-	Sal-
.	.	.	1c	-ra-	.	.	.	.
1GG	Ro-	Sal-	.	.	.	1D	.	.
.	.	.	4B\	.	.	.	.	.
.	.	.	4A/	.	.	.	.	.
*	*	*	*	*	*	*Xlig	*	*
=2-	=2-	=2-	=2-	=2-	=2-	=2-	=2-	=2-
*2\right	*	*	*2\right	*	*	*lig	*	*
1.D	-ra-	.	2B\	-te	-ve	1D	-ra-	.
.	.	.	2A/	.	.	.	.	.
.	.	.	2d\	Cae-	San-	1A	.	.
2F\	-te	.	2D/	-li	.	.	.	.
*	*	*	*	*	*	*Xlig	*	*
=3-	=3-	=3-	=3-	=3-	=3-	=3-	=3-	=3-
1C	Cae-	.	2G/	de-	-cta	1c	.	.
.	.	.	2G/	-su-	pa-	.	.	.
!	!	!	!	!	!	!LO:TX:t=P:global:problem=oddech jako rozdzielacz słów	!	!
1FF	-li	-ve	2F/	-per	.	1A,<	-te	-ve
.	.	.	4.C/	ro-	.	.	.	.
.	.	.	16BB/LL	.	.	.	.	.
*	*	*	*custos:D	*	*	*	*	*
.	.	.	16C/JJ	.	.	.	.	.
!	!	!	!LO:LB:g=original	!	!	!	!	!
=4-	=4-	=4-	=4-	=4-	=4-	=4-	=4-	=4-
*	*	*	*	*	*	*lig	*	*
0rD	.	.	1D	.	-rens	1A	Cae-	San-
*	*	*	*lig	*	*	*	*	*
.	.	.	1D	-ra-	Sal-	1B	.	.
*	*	*	*	*	*	*Xlig	*	*
=5-	=5-	=5-	=5-	=5-	=5-	=5-	=5-	=5-
*	*	*	*	*	*	*lig	*	*
1rD	.	.	1A	.	.	1c	.	.
*	*	*	*Xlig	*	*	*	*	*
2rBB	.	.	1c	-te	.	1A	.	.
2AA/	Ro-	Sal-	.	.	.	.	.	.
*	*	*	*	*	*	*Xlig	*	*
=6-	=6-	=6-	=6-	=6-	=6-	=6-	=6-	=6-
*	*	*	*	*	*	*lig	*	*
2D/	-ra-	.	2d\	Cae-	.	1A	-li	-cta
*	*	*	*2\left	*	*	*	*	*
*custos:C	*	*	*	*	*	*	*	*
2F\	-te	.	2c\	-li	-ve	.	.	.
!LO:LB:g=original	!	!	!	!	!	!	!	!
1C	Cae-	.	2.c\	de-	sal-	1G,<	.	.
.	.	.	4c\	-su-	.	.	.	.
*	*	*	*	*	*	*Xlig	*	*
=7-	=7-	=7-	=7-	=7-	=7-	=7-	=7-	=7-
*	*	*	*	*	*	*lig	*	*
2FF/	-li	-ve	1c	-per	-ve	1A	de-	pa-
2.F\	de-	San-	.	.	.	.	.	.
.	.	.	2r	.	.	1c	.	.
8E\L	.	.	.	.	.	.	.	.
8D\J	.	.	.	.	.	.	.	.
2E\	.	.	2G/	Ro-	Sal-	.	.	.
*	*	*	*	*	*	*Xlig	*	*
=8-	=8-	=8-	=8-	=8-	=8-	=8-	=8-	=8-
*	*	*	*	*	*	*lig	*	*
2F\	.	-cta	2A/	-ra-	-ve	1c	-ſu-	.
2A\	.	pa-	2c\	-te	San-	.	.	.
*	*	*	*	*	*	*custos:c	*	*
2.G\	.	.	2d\	Cae-	-cta	1B	.	.
.	.	.	2d\	-li	pa-	.	.	.
4F\	.	.	.	.	.	.	.	.
*	*	*	*	*	*	*Xlig	*	*
!	!	!	!	!	!	!LO:LB:g=original	!	!
=9-	=9-	=9-	=9-	=9-	=9-	=9-	=9-	=9-
*	*	*	*	*	*	*lig	*	*
2E\	-ſu-	.	4d\	de-	.	1c	.	.
.	.	.	4c\	.	.	.	.	.
2C/	-per	.	1c	.	.	.	.	.
1G	de-	.	.	.	.	1d	.	.
.	.	.	2B\	-su-	.	.	.	.
*	*	*	*	*	*	*Xlig	*	*
=10-	=10-	=10-	=10-	=10-	=10-	=10-	=10-	=10-
*	*	*	*	*	*	*lig	*	*
1C	-su-	.	2c\	-per	-rens	1c	.	.
*	*	*	*custos:B	*	*	*	*	*
.	.	.	2G/	et	e-	.	.	.
!	!	!	!LO:LB:g=original	!	!	!	!	!
0GG	-per	-rens	4B\	nu-	-ni-	1d	.	.
.	.	.	4A/	.	.	.	.	.
.	.	.	4B\	.	.	.	.	.
.	.	.	4c\	.	.	.	.	.
*	*	*	*	*	*	*Xlig	*	*
=11-	=11-	=11-	=11-	=11-	=11-	=11-	=11-	=11-
*	*	*	*2\right	*	*	*lig	*	*
.	.	.	2d\	.	.	1d	-per	-rens
.	.	.	2B\	-bes	.	.	.	.
2rBB	.	.	0e	plu-	.	1c,<	.	.
2C/	et	e-	.	.	.	.	.	.
*	*	*	*	*	*	*Xlig	*	*
=12-	=12-	=12-	=12-	=12-	=12-	=12-	=12-	=12-
4E\	Nu-	-ni-	.	.	.	1G,<	et	e-
4D\	.	.	.	.	.	.	.	.
4E\	.	.	.	.	.	.	.	.
4F\	.	.	.	.	.	.	.	.
*	*	*	*	*	*	*lig	*	*
!LO:LB:g=original	!	!	!	!	!	!	!	!
2G\	.	-xa	2d\	-ant	.	1B	Nu-	-ni-
2E\	-bes	pu-	1e\	iu-	.	.	.	.
=13-	=13-	=13-	=13-	=13-	=13-	=13-	=13-	=13-
4A\	plu-	-er-	.	.	.	1c	.	.
4G\	.	.	.	.	.	.	.	.
4F\	.	.	2A/	-stum	-xa	.	.	.
4E\	.	.	.	.	.	.	.	.
*	*	*	*	*	*	*Xlig	*	*
4F\	.	.	0r	.	.	1A,<	.	-xa,
4G\	.	.	.	.	.	.	.	.
4A\	.	.	.	.	.	.	.	.
4B\	.	.	.	.	.	.	.	.
=14-	=14-	=14-	=14-	=14-	=14-	=14-	=14-	=14-
2c\	.	pe-	.	.	.	1A,<	-bes	pu-
2A\	-ant	-ra	.	.	.	.	.	.
*	*	*	*	*	*	*lig	*	*
1G	iu-	Re-	2r	.	.	1B	plu-	-er-
.	.	.	2G/	et	e-	.	.	.
=15-	=15-	=15-	=15-	=15-	=15-	=15-	=15-	=15-
1F	-stum	-gem	4A/	Nu-	-ni-	1c	.	.
.	.	.	4G/	.	.	.	.	.
.	.	.	4A/	.	.	.	.	.
.	.	.	4B\	.	.	.	.	.
*	*	*	*	*	*	*Xlig	*	*
2rBB	.	.	1c	.	.	1A	.	-pe-
2FF/	et	e-	.	.	.	.	.	.
=16-	=16-	=16-	=16-	=16-	=16-	=16-	=16-	=16-
4AA/	nu-	-ni-	1c	-bes	-xa	1A,<	-ant	-ra
4GG/	.	.	.	.	.	.	.	.
4AA/	.	.	.	.	.	.	.	.
*custos:C	*	*	*	*	*	*	*	*
4BB/	.	.	.	.	.	.	.	.
*	*	*	*	*	*	*lig	*	*
!LO:LB:g=original	!	!	!	!	!	!	!	!
2C/	.	-xa	2r	.	.	1G	iu-	Re-
2E\	-bes	pu-	2G/	et	e-	.	.	.
=17-	=17-	=17-	=17-	=17-	=17-	=17-	=17-	=17-
4D/	plu-	-er-	4A/	nu-	-ni-	1F	.	.
4E\	.	.	4G/	.	.	.	.	.
2.F\	.	.	4A/	.	.	.	.	.
*	*	*	*custos:c	*	*	*	*	*
.	.	.	4B\	.	.	.	.	.
*	*	*	*	*	*	*Xlig	*	*
*	*	*	*	*	*	*lig	*	*
!	!	!	!LO:LB:g=original	!	!	!	!	!
.	.	.	2c\	.	-xa	1A	.	.
8E\L	.	.	.	.	.	.	.	.
8D\J	.	.	.	.	.	.	.	.
1C/	.	-pe-	2e\	-bes	pu-	.	.	.
=18-	=18-	=18-	=18-	=18-	=18-	=18-	=18-	=18-
*	*	*	*	*	*	*custos:F	*	*
.	.	.	2c\	plu-	-er-	1G	.	.
2GG/	-ant	-ra	2B\	-ant	-pe-	.	.	.
*	*	*	*	*	*	*Xlig	*	*
*lig	*	*	*	*	*	*lig	*	*
!	!	!	!	!	!	!LO:LB:g=original	!	!
1D	iu-	Re-	2.A/	iu-	-ra	1F	.	.
.	.	.	4B\	.	.	.	.	.
=19-	=19-	=19-	=19-	=19-	=19-	=19-	=19-	=19-
1C	.	.	1c	.	Re-	1G	.	.
*Xlig	*	*	*	*	*	*Xlig	*	*
!	!	!	!LO:TX:t=P:global:problem=oddech jako rozdzielacz słów	!	!	!	!	!
1F	-stum	-gem	2A,</	-stum	-gem	1F	.	.
.	.	.	2A/	a-	qui	.	.	.
=20-	=20-	=20-	=20-	=20-	=20-	=20-	=20-	=20-
2r	.	.	2A/	-pe-	Cae-	1F,<	-ſtum	-gem
2D/	a-	qui	2A/	-ri-	-lum	.	.	.
2D/	-pe-	Cae-	4A/	-a-	ter-	1F	a-	qui
.	.	.	4G/	.	.	.	.	.
2D/	-ri-	-lum	4A/	.	.	.	.	.
.	.	.	4B\	.	.	.	.	.
=21-	=21-	=21-	=21-	=21-	=21-	=21-	=21-	=21-
2C/	-a-	ter-	4c\	.	.	1G	-pe-	Cae-
.	.	.	4C/	.	.	.	.	.
2BB/	-tur	.	4D/	-tur	.	.	.	.
.	.	.	4E/	.	.	.	.	.
1AA	ter-	-ram-	4F/	ter-	.	1A	-ri-	-lum
.	.	.	8E/L	.	.	.	.	.
.	.	.	8D/J	.	.	.	.	.
*	*	*	*custos:F	*	*	*	*	*
.	.	.	2E/	.	-ram-	.	.	.
!	!	!	!LO:LB:g=original	!	!	!	!	!
=22-	=22-	=22-	=22-	=22-	=22-	=22-	=22-	=22-
*	*	*	*	*	*	*lig	*	*
*custos:AA	*	*	*	*	*	*	*	*
1D	-ra	-q(ue)	2F/	-ra	-que	1A	-a-	ter-
.	.	.	1A	a-	re-	.	.	.
!LO:PB:g=original	!	!	!	!	!	!	!	!
2rBB	.	.	.	.	.	1c	.	.
2AA/	a-	ter-	1c\	-pe-	.	.	.	.
*	*	*	*	*	*	*Xlig	*	*
=23-	=23-	=23-	=23-	=23-	=23-	=23-	=23-	=23-
2C/	-pe-	-ram-	.	.	.	1G,<	-tur	-ram-
2GG/	-ri-	-q(ue)	2B\	-ri-	.	.	.	.
*lig	*	*	*	*	*	*lig	*	*
1D	-a-	re-	2.A/	-a-	.	1F	ter-	-q(ue)
.	.	.	4B\	-tur	.	.	.	.
=24-	=24-	=24-	=24-	=24-	=24-	=24-	=24-	=24-
1C	.	.	2.c\	ter-	.	1G	.	.
.	.	.	4B\	.	.	.	.	.
*Xlig	*	*	*	*	*	*Xlig	*	*
*	*	*	*	*	*	*lig	*	*
1FF	-tur	-git	4A/	ra	.	1F	.	re-
.	.	.	4G/	.	.	.	.	.
.	.	.	4A/	et	.	.	.	.
.	.	.	8G/L	.	.	.	.	.
.	.	.	8A/J	.	.	.	.	.
=25-	=25-	=25-	=25-	=25-	=25-	=25-	=25-	=25-
*lig	*	*	*	*	*	*	*	*
1BB-X	ter-	re-	1.B-X	ger-	.	1D	.	.
*	*	*	*	*	*	*Xlig	*	*
1GG	.	.	.	.	.	1D,<	-ra	-git
.	.	.	2B-\	-mi-	-git	.	.	.
*Xlig	*	*	*	*	*	*	*	*
=26-	=26-	=26-	=26-	=26-	=26-	=26-	=26-	=26-
2D/	-ra	-git	0A	-net	in	1F	et	in
1D	et	in	.	.	.	.	.	.
!	!	!	!	!	!	!LO:SIC:v:l:s=sae-:verse 2	!	!
.	.	.	.	.	.	1F	ger-	se-
*2\left	*	*	*	*	*	*	*	*
!LO:SIC:v:l:s=sae-:verse 2	!	!	!	!	!	!	!	!
2.F\	ger-	se-	.	.	.	.	.	.
=27-	=27-	=27-	=27-	=27-	=27-	=27-	=27-	=27-
*	*	*	*	*	*	*custos:F	*	*
!	!	!	!LO:SIC:v:l:s=sae-:verse 2	!	!	!	!	!
.	.	.	2.c\	Sal-	se-	1G	-mi-	.
4F\	-mi-	-cu-	.	.	.	.	.	.
2E\	-net	-la	.	.	.	.	.	.
.	.	.	4G/	-va-	.	.	.	.
*lig	*	*	*	*	*	*	*	*
*	*	*	*	*	*	*lig	*	*
!LO:SIC:v:l:s=sae-:verse 2	!	!	!	!	!	!LO:LB:g=original	!	!
1D	Sal-	se-	4A/	-to-	.	1F	-net	-cu-
.	.	.	4G/	.	.	.	.	.
.	.	.	4A/	.	.	.	.	.
*	*	*	*custos:c	*	*	*	*	*
.	.	.	4Bny\	.	.	.	.	.
!	!	!	!LO:LB:g=original	!	!	!	!	!
=28-	=28-	=28-	=28-	=28-	=28-	=28-	=28-	=28-
1C	.	.	2.c\	.	.	1G	.	.
.	.	.	4B\	.	.	.	.	.
*Xlig	*	*	*	*	*	*Xlig	*	*
*	*	*	*	*	*	*lig	*	*
1FF	-va-	-cu-	4A/	.	.	1F	.	-la
.	.	.	4G/	.	.	.	.	.
.	.	.	2A/	.	.	.	.	.
=29-	=29-	=29-	=29-	=29-	=29-	=29-	=29-	=29-
2GG/	-to-	-lo-	2G/	.	.	1D,<	.	.
*custos:GG	*	*	*	*	*	*	*	*
!	!	!	!LO:TX:t=P:problem=♯ below	!	!	!	!	!
2D/	.	.	2F#X/	.	.	.	.	.
*	*	*	*lig	*	*	*Xlig	*	*
*	*	*	*	*	*	*lig	*	*
!LO:LB:g=original	!	!	!	!	!	!LO:SIC:v:l:s=sae-:verse 2	!	!
1GG	-rem	-rum	1G	.	.	1D	Sal-	se-
=30-	=30-	=30-	=30-	=30-	=30-	=30-	=30-	=30-
2D/	et	in	1A	.	.	1F	.	.
!LO:SIC:v:l:s=sae-:verse 2	!	!	!	!	!	!	!	!
2.F\	ger-	se-	.	.	.	.	.	.
*	*	*	*Xlig	*	*	*Xlig	*	*
*	*	*	*	*	*	*lig	*	*
.	.	.	1G,<	-rem	.	1C	-va-	.
4F\	-mi-	-cu-	.	.	.	.	.	.
2E\	-net	-la	.	.	.	.	.	.
=31-	=31-	=31-	=31-	=31-	=31-	=31-	=31-	=31-
!LO:SIC:v:l:s=sae-:verse 2	!	!	!	!	!	!	!	!
*	*	*	*	*ij	*	*	*	*
2.D/	Sal-	se-	1A	et	.	1F	.	.
4C/	-va-	.	.	.	.	.	.	.
*	*	*	*	*	*	*Xlig	*	*
2BB-X/	.	.	2.B-X\	ger-	.	1D	.	-cu-
2GG/	.	-cu-	.	.	.	.	.	.
.	.	.	4B-\	-mi-	-cu-	.	.	.
=32-	=32-	=32-	=32-	=32-	=32-	=32-	=32-	=32-
1D	-to-	-lo-	2A/	-net	-la	1D,<	-to-	-lo-
!	!	!	!LO:SIC:v:l:s=sae-:verse 2	!	!	!	!	!
.	.	.	1A	Sal-	se-	.	.	.
1AA	-rem	-rum	.	.	.	1E	.	.
.	.	.	2A/	-ua-	-cu-	.	.	.
=33-	=33-	=33-	=33-	=33-	=33-	=33-	=33-	=33-
!LO:SIC:v:l:s=sae-:verse 2	!	!	!	!	!	!	!	!
*	*ij	*	*	*	*	*	*	*
2.FF/	Sal-	se-	0A	-to-	-lo-	1F	.	.
4GG/	-va-	-cu-	.	.	.	.	.	.
1AA	-to-	-lo-	.	.	.	1E	.	.
=34-	=34-	=34-	=34-	=34-	=34-	=34-	=34-	=34-
!LO:TX:b:t=Vers(us).	!	!	!LO:TX:b:t=Vers(us).	!	!	!LO:TX:b:t=Versus.	!	!
0Dl;;	-rem	-rum.	0Al;;	-rem	-rum.	0l;;D	-rem	-rum.
*	*Xij	*	*	*Xij	*	*	*	*
!LO:LB:g=original	!	!	!LO:PB:g=original	!	!	!LO:LB:g=original	!	!
=35||-	=35||-	=35||-	=35||-	=35||-	=35||-	=35||-	=35||-	=35||-
*M2/1	*	*	*M2/1	*	*	*M2/1	*	*
*met(C|)	*	*	*met(C|)	*	*	*met(C|)	*	*
!LO:TX:t=P:problem=inicjał B	!	!	!LO:TX:t=P:problem=inicjał B	!	!	!LO:TX:t=P:problem=inicjał B	!	!
1D	Be-	E-	1A	Be-	E-	1F	Be-	E-
*	*	*	*	*	*	*lig	*	*
2GG/	-ne-	-ru-	2Bny\	-ne-	-ru-	1G	-ne-	-ru-
*2\right	*	*	*	*	*	*	*	*
2G\	-di-	-cta-	2B\	-di-	.	.	.	.
=36-	=36-	=36-	=36-	=36-	=36-	=36-	=36-	=36-
2.F\	.	.	4c\	-xi-	-cta-	1A	.	.
.	.	.	4B\	.	.	.	.	.
.	.	.	4A/	.	.	.	.	.
4E\	.	.	4G/	.	.	.	.	.
*	*	*	*	*	*	*Xlig	*	*
2D/	-xi-	.	4Fny/	.	.	1A	-di-	.
.	.	.	4D/	-sti	.	.	.	.
2D/	-sti	-vit	2.d\	Do-	.	.	.	.
=37-	=37-	=37-	=37-	=37-	=37-	=37-	=37-	=37-
2.AA/	Do-	cor	.	.	.	1A	-xi-	-cta-
.	.	.	8c\L	.	.	.	.	.
.	.	.	8B\J	.	.	.	.	.
!	!	!	!LO:TX:t=P:problem=♯ below	!	!	!	!	!
.	.	.	4c#X\	.	.	.	.	.
4BBny/	.	.	4d\	.	.	.	.	.
2C/	.	.	2e\	.	.	1A,<	-sti	-vit
2D/	-mi-	.	1d\	.	.	.	.	.
=38-	=38-	=38-	=38-	=38-	=38-	=38-	=38-	=38-
0AA	-ne	me-	.	.	.	1A	Do-	cor
!	!	!	!LO:TX:t=P:problem=♯ above	!	!	!	!	!
.	.	.	4c#X\	.	.	.	.	.
.	.	.	4B\	.	.	.	.	.
!	!	!	!LO:TX:t=P:problem=♯ below	!	!	!	!	!
.	.	.	2c#X\	.	.	1A	-mi-	me-
*	*	*	*custos:d	*	*	*	*	*
!	!	!	!LO:TX:t=P:problem=♯ below	!	!	!	!	!
.	.	.	2c#X\	-mi-	-vit	.	.	.
!	!	!	!LO:LB:g=original	!	!	!	!	!
=39-	=39-	=39-	=39-	=39-	=39-	=39-	=39-	=39-
2.D/	ter-	.	2d\	-ne	cor	1A,<	-ne	-um
.	.	.	1A	ter-	me-	.	.	.
4E\	.	.	.	.	.	.	.	.
*	*	*	*	*	*	*lig	*	*
2F\	.	.	.	.	.	1A	ter-	ver-
*custos:C	*	*	*	*	*	*	*	*
2D/	-ram	.	2F/	-ram	.	.	.	.
!LO:LB:g=original	!	!	!	!	!	!	!	!
=40-	=40-	=40-	=40-	=40-	=40-	=40-	=40-	=40-
1C	tu-	.	1G	tu-	.	1c	.	.
*	*	*	*	*	*	*Xlig	*	*
2FF/	-am	-um	4F/	-am	.	1A,<	-ram	-bum
.	.	.	4G/	.	.	.	.	.
2.FF/	ter-	ver-	4A/	.	.	.	.	.
.	.	.	4B\	.	.	.	.	.
=41-	=41-	=41-	=41-	=41-	=41-	=41-	=41-	=41-
*	*	*	*	*	*	*lig	*	*
.	.	.	2cny\	.	-um	1A	tu-	bo-
4GG/	.	.	.	.	.	.	.	.
4AA/	.	.	1c	ter-	ver-	.	.	.
4BB/	.	.	.	.	.	.	.	.
4C/	.	.	.	.	.	1G	.	.
4D/	.	.	.	.	.	.	.	.
4E\	.	.	2c\	-ram	-bum	.	.	.
4F\	.	.	.	.	.	.	.	.
*	*	*	*	*	*	*Xlig	*	*
=42-	=42-	=42-	=42-	=42-	=42-	=42-	=42-	=42-
*	*	*	*	*	*	*lig	*	*
2G\	.	.	4B\	tu-	.	1G	-am	-num
.	.	.	4A\	.	.	.	.	.
2E\	-ram	-bum	4B\	.	bo-	.	.	.
.	.	.	4c\	.	.	.	.	.
1D	tu-	bo-	1d	.	.	1A,<	.	.
*	*	*	*	*	*	*Xlig	*	*
=43-	=43-	=43-	=43-	=43-	=43-	=43-	=43-	=43-
*	*	*	*	*	*	*lig	*	*
1GG	-am	-num	1B	-am	-num	1G	a-	di-
*	*	*	*	*	*	*custos:G	*	*
2D/	a-	di-	2.A/	a-	di-	1F	.	.
2D/	-ver-	-co	.	.	.	.	.	.
.	.	.	4B\	-ver-	-co	.	.	.
*	*	*	*	*	*	*Xlig	*	*
!	!	!	!	!	!	!LO:LB:g=original	!	!
=44-	=44-	=44-	=44-	=44-	=44-	=44-	=44-	=44-
*	*	*	*	*	*	*lig	*	*
1C	-ti-	e-	1.c	-ti-	e-	1G	-ver-	-co
2AA/	-sti	-go	.	.	.	1A	.	.
*	*	*	*custos:f	*	*	*	*	*
2D/	Ca-	o-	2A/	-sti	-go	.	.	.
*	*	*	*	*	*	*Xlig	*	*
!	!	!	!LO:LB:g=original	!	!	!	!	!
=45-	=45-	=45-	=45-	=45-	=45-	=45-	=45-	=45-
2D/	-pti-	-pe-	1r	.	.	1A	-ti-	e-
!LO:TX:t=P:problem=♯ below	!	!	!	!	!	!	!	!
2C#X/	-ui-	-ra	.	.	.	.	.	.
!LO:LB:g=original	!	!	!	!	!	!	!	!
2.D/	-ta-	me-	2rc	.	.	1A,<	-sti	-go
.	.	.	2f\	Ca-	o-	.	.	.
4E\	.	.	.	.	.	.	.	.
=46-	=46-	=46-	=46-	=46-	=46-	=46-	=46-	=46-
4F\	.	.	2f\	-pti-	-pe-	1A	Ca-	o-
4G\	.	.	.	.	.	.	.	.
2A\	.	.	2e\	-ui-	-ra	.	.	.
0D	-tem	-a	4f\	-ta-	me-	1A	-pti-	-pe-
.	.	.	4e\	.	.	.	.	.
.	.	.	4d\	.	.	.	.	.
.	.	.	4c\	.	.	.	.	.
=47-	=47-	=47-	=47-	=47-	=47-	=47-	=47-	=47-
*	*	*	*	*	*	*lig	*	*
.	.	.	0d	.	.	1A	-ui-	-ra
1G	Ja-	Re-	.	.	.	1B	.	.
*	*	*	*	*	*	*Xlig	*	*
=48-	=48-	=48-	=48-	=48-	=48-	=48-	=48-	=48-
*	*	*	*	*	*	*lig	*	*
2Cny,</	-cob	-gi	2c\	-tem	-a	1c	.	.
!LO:TX:t=P:problem=w 2. wersie nadmiar sylab do końca	!	!	!	!	!	!	!	!
2C/	Ca-	dico	2G/	Ca-	o-	.	.	.
2D/	-pti-	e-	2G/	-pti-	-pe-	1A	.	.
2D/	-ui-	-go	2F#X/	-ui-	-ra	.	.	.
*	*	*	*	*	*	*Xlig	*	*
=49-	=49-	=49-	=49-	=49-	=49-	=49-	=49-	=49-
1GG	-ta-	o-	2G/	-ta-	me-	1G	-ta-	me-
.	.	.	2B\	-tem	-a	.	.	.
0D	-tem	-pera	0.A	Ja-	Re-	1F,<	-tem	-a
=50-	=50-	=50-	=50-	=50-	=50-	=50-	=50-	=50-
*	*	*	*	*	*	*lig	*	*
.	.	.	.	.	.	1F	Ja-	Re-
1AA	Ja-	mea	.	.	.	1E	.	.
*	*	*	*	*	*	*Xlig	*	*
=51-	=51-	=51-	=51-	=51-	=51-	=51-	=51-	=51-
0Dl;;	-cob.	Regi	0Al;;	-cob.	gi	0Dl;;	-cob.	-gi
==	==	==	==	==	==	==	==	==
*-	*-	*-	*-	*-	*-	*-	*-	*-
!!!system-decoration: [g1]
!!!RDF**kern: > = above
!!!RDF**kern: < = below
!!!RDF**kern: l = terminal long
!!!ENC: Andrzej Kubiczek
!!!END: 2021-03-21
!!!ENC: Andrzej Borzym
!!!END: 2021-03-06
